src/img/icons/icon-cart-color.svg

<?xml version="1.0" encoding="UTF-8"?>
<svg width="28px" height="20px" viewBox="0 0 28 20" version="1.1" xmlns="http://www.w3.org/2000/svg" xmlns:xlink="http://www.w3.org/1999/xlink">
    <!-- Generator: sketchtool 53.2 (72643) - https://sketchapp.com -->
    <title>C2608F55-ED96-4D99-B45E-A303026E858D</title>
    <desc>Created with sketchtool.</desc>
    <defs>
        <linearGradient x1="100%" y1="32%" x2="0%" y2="68%" id="linearGradient-1">
            <stop stop-color="#9C5EFF" offset="0%"></stop>
            <stop stop-color="#4489FF" offset="100%"></stop>
        </linearGradient>
    </defs>
    <g id="Cart" stroke="none" stroke-width="1" fill="none" fill-rule="evenodd">
        <g id="Cart-dropdown" transform="translate(-1280.000000, -84.000000)">
            <g id="rest">
                <g id="button-cart-rest" transform="translate(1276.000000, 77.000000)">
                    <g id="icon/icon-cart-empty" transform="translate(4.500000, 7.079766)">
                        <g id="icon-cart-empty">
                            <path d="M23.0625,6.42023438 L3.9375,6.42023438 C3.0054375,6.42023438 2.25,7.17567188 2.25,8.10773438 L4.5,18.2327344 C4.5,19.1647969 5.2554375,19.9202344 6.1875,19.9202344 L20.8125,19.9202344 C21.7445625,19.9202344 22.5,19.1647969 22.5,18.2327344 L24.75,8.10773438 C24.75,7.17567188 23.9945625,6.42023438 23.0625,6.42023438 Z M9,17.1077344 C9,17.7292969 8.4965625,18.2327344 7.875,18.2327344 C7.2534375,18.2327344 6.75,17.7292969 6.75,17.1077344 L6.75,13.7327344 C6.75,13.1111719 7.2534375,12.6077344 7.875,12.6077344 C8.4965625,12.6077344 9,13.1111719 9,13.7327344 L9,17.1077344 Z M14.625,17.1077344 C14.625,17.7292969 14.1215625,18.2327344 13.5,18.2327344 C12.8784375,18.2327344 12.375,17.7292969 12.375,17.1077344 L12.375,13.7327344 C12.375,13.1111719 12.8784375,12.6077344 13.5,12.6077344 C14.1215625,12.6077344 14.625,13.1111719 14.625,13.7327344 L14.625,17.1077344 Z M20.25,17.1077344 C20.25,17.7292969 19.7465625,18.2327344 19.125,18.2327344 C18.5034375,18.2327344 18,17.7292969 18,17.1077344 L18,13.7327344 C18,13.1111719 18.5034375,12.6077344 19.125,12.6077344 C19.7465625,12.6077344 20.25,13.1111719 20.25,13.7327344 L20.25,17.1077344 Z" id="Shape" fill="url(#linearGradient-1)" fill-rule="nonzero"></path>
                            <path d="M27,7.42023438 C27,8.24898438 26.4965625,8.92023438 25.875,8.92023438 L1.125,8.92023438 C0.5034375,8.92023438 0,8.24898438 0,7.42023438 L0,7.42023438 C0,6.59148438 0.5034375,5.92023438 1.125,5.92023438 L25.875,5.92023438 C26.4965625,5.92023438 27,6.59148438 27,7.42023438 L27,7.42023438 Z" id="Path" fill="#4489FF"></path>
                            <path d="M19.59075,0.329484375 C20.0300625,0.768796875 20.0300625,1.48092188 19.59075,1.92023438 L13.170375,10.5906094 C12.7310625,11.0299219 12.0189375,11.0299219 11.579625,10.5906094 L11.579625,10.5906094 C11.1403125,10.1512969 11.1403125,9.43917188 11.579625,8.99985938 L18,0.329484375 C18.4393125,-0.109828125 19.1514375,-0.109828125 19.59075,0.329484375 L19.59075,0.329484375 Z" id="Path" fill="#FFBB01"></path>
                        </g>
                    </g>
                </g>
            </g>
        </g>
    </g>
</svg>

<svg width="28" height="20" xmlns="http://www.w3.org/2000/svg"><defs><linearGradient x1="100%" y1="32%" x2="0%" y2="68%" id="a"><stop stop-color="#9C5EFF" offset="0%"/><stop stop-color="#4489FF" offset="100%"/></linearGradient></defs><g fill="none" fill-rule="evenodd"><path d="M23.063 6.42H3.938c-.933 0-1.688.756-1.688 1.688L4.5 18.233c0 .932.755 1.687 1.688 1.687h14.625c.932 0 1.687-.755 1.687-1.687l2.25-10.125c0-.932-.755-1.688-1.688-1.688zM9 17.108a1.125 1.125 0 1 1-2.25 0v-3.375a1.125 1.125 0 1 1 2.25 0v3.375zm5.625 0a1.125 1.125 0 1 1-2.25 0v-3.375a1.125 1.125 0 1 1 2.25 0v3.375zm5.625 0a1.125 1.125 0 1 1-2.25 0v-3.375a1.125 1.125 0 1 1 2.25 0v3.375z" fill="url(#a)" fill-rule="nonzero" transform="translate(.5 .08)"/><path d="M27.5 7.5c0 .829-.503 1.5-1.125 1.5H1.625C1.003 9 .5 8.329.5 7.5S1.003 6 1.625 6h24.75c.622 0 1.125.671 1.125 1.5z" fill="#4489FF"/><path d="M20.09.41c.44.439.44 1.15 0 1.59l-6.42 8.67a1.125 1.125 0 0 1-1.59-1.59L18.5.41c.44-.44 1.151-.44 1.59 0z" fill="#FFBB01"/></g></svg>
